X: 70
T: Debka Rafiah
C: Arabic
D: Israeli Folk Dance Festival featuring Geula Zohar (Tikva 80)
F: http://www.youtube.com/watch?v=HMVFI8CdoZ0
F: http://www.youtube.com/watch?v=6yffgPXIA3I
L:1/16
O: Israel 
I: choreographer, Moshiko
S: Songs and Folk Dances Book 4 /Haim Kirsch (c) 1961 NEGEN
M:2/4
Q:1/4=120
K:Am
|:AGAF GFG2 | FEF2 EDEF | GFG2 FEF2| E4 E4      :|\
|:EDEF GF G2| FEF2 E2AG | A2A2 GFG2|
  FEF2 EDEF | GFG2 FEF2 | E4 E4    :|\
  A3B G4    | A3B G4    | A3B G2G2 | A2A2 G2G2  | A2A2 G2G2 |E4 E4|



